X:1
T:Title
%%score 1 2 { 3 | 4 }
L:1/8
Q:1/4=93
M:4/4
K:C
V:1 treble nm="Grand Piano, Soprano"
V:2 bass nm="Drawbar Organ, Staff-1"
V:3 bass nm="Choir Pad, Under the Shadow of Thy Wings"
V:4 bass 
V:1
 E2 E>F G3 G | A2 d2 c4 | E2 E>F G3 G | AGFE .D4 | G2 c>d e3 d | c2 BA G4 | ^F2 F>F GG z E | %7
w: By~Frederic~Henry~Pease * * * *|||||||
 GFEF .E4 | A2 B>c cG z E | GFED C4 | [Ge]2 [EG]>[EG] [FA]2 [EG]2 | [Ec]2 [EG]2 [FA]4 | %12
w: |||||
 [^FA]2 [FA]>[FA] [GB][GB] z [GB] | [Bd][Ac][GB][Ac] [GB]4 | [Gc]2 [EG]>[EG] [FA]2 [EG]2 | %15
w: |||
 [Ge]2 [EG]2 [FA]4 | [Ac]2 [GB]>[FA] [FA][EG] z2 | [CE]2 [CE]>[CE] [CF][CE] z2 | %18
w: |||
 [_E^F]2 [EF]>[EF] [=EG][EG] z [CE] | [B,G][DF][CE][B,D] C4- | C4 z4 |] %21
w: |||
V:2
 z G,[CE]G, z G,[CE]G, | z G,[K:treble][B,DF]G, z G,[CE]G, | z[K:bass] G,[CE]G, z G,[CE]G, | %3
 z G,[K:treble][B,DF][CE] z G,[DF][_E^F] | [EG]2 [Ec]>[Fd] [Ge]3 [^Gd] | [Ac]2 [GB][^FA] [EG]4 | %6
 z [A,C^F] z [C_EF] z [C=EG] z [CEG] | z G,[B,G]G, z G,[CE]G, | [C_EA]2 z2 [C=EG]2 z2 | z8 | z8 | %11
 z8 | z8 | z8 | z8 | z8 | z8 | z8 | z8 | z8 | z8 |] %21
V:3
 C,2 z2 C,2 z2 | C,2 z2 C,2 z2 | C,2 z2 C,2 z2 | C,2 z2 G,,2 z2 | C,G,CG, C,G,CB, | %5
 A,A,,B,,_E, =E,G,E,C, | A,,_E,C,A,, G,,G,=E,C, | G,,2 z2 C,2 z2 | ^F,2 z2 G,2 z2 | %9
 [F,G,B,]4 [C,E,G,C]4 | C2 C>C C2 C2 | C2 C2 C4 | D2 D>D D4- | DDDD D4 | E2 C>C C2 C2 | C2 C2 C4 | %16
 z8 | G,2 G,>G, A,G, z2 | C2 C>C CC z[K:bass] G, | G,G,G,F, E,4- | E,4 z4 |] %21
V:4
 C,,2 z2 C,,2 z2 | C,,2 z2 C,,2 z2 | C,,2 z2 C,,2 z2 | C,,2 z2 B,,,2 z2 | z8 | z8 | z8 | z8 | %8
 ^F,,2 z2 G,,2 z2 | [B,,,G,,]4 C,,4 | C,2 C,>C, C,2 C,2 | C,2 C,2 F,4 | D,2 D,>D, D,D, z D, | %13
 D,D,D,D, G,4 | C2 C,>C, C,2 C,2 | z2 C,2 F,4 | z8 | C,2 C,>C, C,C, z2 | A,,2 A,,>A,, G,,4- | %19
 G,,G,,G,,G,, C,4- | C,4 z4 |] %21

